img/chest.svg

<svg width="80" height="72" viewBox="0 0 80 72" fill="none" xmlns="http://www.w3.org/2000/svg">
<g clip-path="url(#clip0)">
<path d="M66.4755 14.0107H13.2584V71.1274H66.4755V14.0107Z" fill="url(#paint0_linear)"/>
<path d="M13.0382 14.0107C13.1024 14.0107 13.1666 14.0383 13.2584 14.0658C13.2584 33.068 13.2584 52.0701 13.2584 71.0998C9.13864 71.421 5.66118 70.3841 2.89939 67.7233C0.945041 65.8332 -2.18721e-05 63.6127 -2.18721e-05 61.0987C-2.18721e-05 52.1986 -2.18721e-05 43.3077 -2.18721e-05 34.4076C-2.18721e-05 31.0127 -0.00919724 27.6178 -0.00919724 24.2229C-0.00919724 20.1215 2.20207 17.1395 6.26675 15.1209C8.35873 14.0933 10.6801 13.9373 13.0382 14.0107Z" fill="url(#paint1_linear)"/>
<path d="M57.1809 14.0016C59.5573 14.0016 59.7958 14.0016 62.1631 14.0016C62.1631 33.068 62.1631 52.0701 62.1631 71.109C46.0053 71.109 33.7837 71.109 17.5708 71.109C17.5708 52.0793 17.5708 33.0771 17.5708 14.0199C19.9381 14.0199 20.4519 14.0199 22.865 14.0199C22.865 13.7813 22.865 13.5978 22.865 13.4235C22.865 11.3774 22.8742 9.32212 22.8558 7.27601C22.8375 5.84466 23.2228 4.59681 24.3422 3.62422C25.1313 2.94524 26.0397 2.59658 27.0673 2.59658C30.2512 2.5874 33.4259 2.5874 36.6097 2.5874C41.9589 2.5874 47.3174 2.59658 52.6666 2.5874C54.0704 2.5874 55.2357 3.04617 56.1532 4.11051C56.8873 4.96382 57.1625 5.96394 57.1625 7.08333C57.1533 9.23954 57.1625 11.3958 57.1625 13.552C57.1533 13.6712 57.1625 13.8089 57.1809 14.0016ZM28.6088 14.0016C28.829 14.0016 28.9942 14.0016 29.1593 14.0016C31.6917 14.0016 34.2333 14.0016 36.7657 14.0016C41.5002 14.0016 46.2438 14.0016 50.9783 14.0107C51.3545 14.0107 51.4371 13.8914 51.4371 13.5336C51.4187 11.9279 51.4371 10.3222 51.4371 8.71654C51.4371 8.58809 51.4187 8.45963 51.4004 8.322C43.7848 8.322 36.2152 8.322 28.6088 8.322C28.6088 10.2121 28.6088 12.0656 28.6088 14.0016Z" fill="white"/>
<mask id="mask0" mask-type="alpha" maskUnits="userSpaceOnUse" x="17" y="2" width="46" height="70">
<path d="M57.1808 14.0016C59.5573 14.0016 59.7958 14.0016 62.1631 14.0016C62.1631 33.068 62.1631 52.0701 62.1631 71.109C46.0053 71.109 33.7837 71.109 17.5708 71.109C17.5708 52.0793 17.5708 33.0771 17.5708 14.0199C19.938 14.0199 20.4519 14.0199 22.865 14.0199C22.865 13.7813 22.865 13.5978 22.865 13.4235C22.865 11.3774 22.8742 9.32212 22.8558 7.27601C22.8375 5.84466 23.2228 4.59681 24.3422 3.62422C25.1313 2.94524 26.0397 2.59658 27.0673 2.59658C30.2512 2.5874 33.4258 2.5874 36.6097 2.5874C41.9589 2.5874 47.3173 2.59658 52.6666 2.5874C54.0704 2.5874 55.2357 3.04617 56.1532 4.11051C56.8872 4.96382 57.1625 5.96394 57.1625 7.08333C57.1533 9.23954 57.1625 11.3958 57.1625 13.552C57.1533 13.6712 57.1625 13.8089 57.1808 14.0016ZM28.6088 14.0016C28.829 14.0016 28.9941 14.0016 29.1593 14.0016C31.6917 14.0016 34.2333 14.0016 36.7657 14.0016C41.5002 14.0016 46.2438 14.0016 50.9783 14.0107C51.3545 14.0107 51.4371 13.8914 51.4371 13.5336C51.4187 11.9279 51.4371 10.3222 51.4371 8.71654C51.4371 8.58809 51.4187 8.45963 51.4004 8.322C43.7848 8.322 36.2151 8.322 28.6088 8.322C28.6088 10.2121 28.6088 12.0656 28.6088 14.0016Z" fill="#F7F9FC"/>
</mask>
<g mask="url(#mask0)">
<path d="M58.096 0H21V14.02H58.096V0Z" fill="url(#paint2_linear)"/>
</g>
<path d="M80 24.0762C80 20.2959 77.9356 17.4791 74.2654 15.433C72.0083 14.176 69.4483 13.9374 66.8242 13.9925C66.4205 14.0016 66.4755 14.2127 66.4755 14.4329C66.4755 21.0391 66.4755 27.6362 66.4755 34.2425C66.4755 45.8493 66.4755 57.447 66.4663 69.0538C66.4663 69.7236 66.4663 70.3934 66.4663 71.1183C68.1179 71.1733 69.6869 71.1825 71.2284 70.8155C76.44 69.586 79.9908 65.7048 79.9908 61.1263C80.0092 48.7854 80 36.4262 80 24.0762Z" fill="url(#paint3_linear)"/>
<path d="M44.2161 46.7852C44.2161 47.9688 44.2161 49.0882 44.2161 50.2168C44.2161 51.4921 44.2161 52.7675 44.2161 54.0337C44.2161 54.7953 43.8307 55.199 43.0783 55.199C41.0047 55.2082 38.9311 55.2082 36.8574 55.199C36.1693 55.199 35.7839 54.7677 35.7839 54.0429C35.7839 51.7674 35.7839 49.4919 35.7839 47.2164C35.7839 47.088 35.7839 46.9503 35.7839 46.7852C35.6096 46.7852 35.4811 46.7852 35.3435 46.7852C33.1047 46.7852 30.8567 46.7852 28.618 46.7852C27.7279 46.7852 27.3609 46.4273 27.3609 45.5373C27.3609 43.5646 27.3609 41.5919 27.3609 39.6192C27.3609 38.72 27.7188 38.3622 28.6088 38.3622C30.8384 38.3622 33.068 38.3622 35.2976 38.3622C35.4444 38.3622 35.5821 38.3622 35.7747 38.3622C35.7747 38.2154 35.7747 38.0961 35.7747 37.9768C35.7747 35.7013 35.7747 33.4258 35.7747 31.1504C35.7747 30.3062 36.1509 29.9392 36.9951 29.9392C38.9678 29.9392 40.9405 29.9392 42.9132 29.9392C43.8399 29.9392 44.1977 30.2879 44.1977 31.2329C44.2069 33.4901 44.1977 35.738 44.1977 37.9952C44.1977 38.1053 44.1977 38.2154 44.1977 38.3714C44.3445 38.3714 44.473 38.3714 44.5923 38.3714C46.8678 38.3714 49.1432 38.3714 51.4187 38.3805C52.2537 38.3805 52.6115 38.7476 52.6115 39.5825C52.6115 41.5644 52.6115 43.5463 52.6115 45.5282C52.6115 46.4365 52.2629 46.7852 51.3729 46.7852C49.1065 46.7852 46.8402 46.7852 44.5831 46.7944C44.4913 46.7852 44.3812 46.7852 44.2161 46.7852Z" fill="url(#paint4_linear)"/>
</g>
<defs>
<linearGradient id="paint0_linear" x1="13.2597" y1="42.5656" x2="66.473" y2="42.5656" gradientUnits="userSpaceOnUse">
<stop stop-color="#B0F4FF"/>
<stop offset="1" stop-color="#69DCFC"/>
</linearGradient>
<linearGradient id="paint1_linear" x1="-2.18711e-05" y1="42.5746" x2="13.2597" y2="42.5746" gradientUnits="userSpaceOnUse">
<stop stop-color="#6CBCFC"/>
<stop offset="1" stop-color="#458DFC"/>
</linearGradient>
<linearGradient id="paint2_linear" x1="20.9962" y1="7.00849" x2="58.0944" y2="7.00849" gradientUnits="userSpaceOnUse">
<stop stop-color="#6CBCFC"/>
<stop offset="1" stop-color="#458DFC"/>
</linearGradient>
<linearGradient id="paint3_linear" x1="66.4686" y1="42.569" x2="80.0007" y2="42.569" gradientUnits="userSpaceOnUse">
<stop stop-color="#6CBCFC"/>
<stop offset="1" stop-color="#458DFC"/>
</linearGradient>
<linearGradient id="paint4_linear" x1="27.3666" y1="42.5783" x2="52.6299" y2="42.5783" gradientUnits="userSpaceOnUse">
<stop stop-color="#6CBCFC"/>
<stop offset="1" stop-color="#458DFC"/>
</linearGradient>
<clipPath id="clip0">
<rect width="80" height="71.1549" fill="white"/>
</clipPath>
</defs>
</svg>

<svg width="80" height="72" fill="none" xmlns="http://www.w3.org/2000/svg"><g clip-path="url(#clip0)"><path d="M66.475 14.01H13.258v57.117h53.218V14.011z" fill="url(#paint0_linear)"/><path d="M13.038 14.01c.064 0 .129.028.22.056V71.1c-4.12.321-7.597-.716-10.359-3.377C.945 65.833 0 63.613 0 61.1V34.408c0-3.395-.01-6.79-.01-10.185 0-4.101 2.212-7.083 6.277-9.102 2.092-1.028 4.413-1.184 6.771-1.11z" fill="url(#paint1_linear)"/><path d="M57.18 14.002h4.983v57.107H17.571v-57.09h5.294v-.595c0-2.047.01-4.102-.01-6.148-.018-1.431.368-2.68 1.487-3.652.79-.679 1.698-1.027 2.725-1.027 3.184-.01 6.359-.01 9.543-.01 5.349 0 10.707.01 16.057 0 1.403 0 2.569.46 3.486 1.524.734.853 1.01 1.853 1.01 2.972-.01 2.157 0 4.313 0 6.469-.01.12 0 .257.018.45zm-28.571 0h8.157c4.734 0 9.478 0 14.212.009.377 0 .46-.12.46-.477-.02-1.606 0-3.212 0-4.817 0-.129-.02-.257-.038-.395H28.61v5.68z" fill="#fff"/><mask id="a" maskUnits="userSpaceOnUse" x="17" y="2" width="46" height="70"><path d="M57.18 14.002h4.983v57.107H17.571v-57.09h5.294v-.595c0-2.047.01-4.102-.01-6.148-.018-1.431.368-2.68 1.487-3.652.79-.679 1.698-1.027 2.725-1.027 3.184-.01 6.359-.01 9.543-.01 5.349 0 10.707.01 16.057 0 1.403 0 2.569.46 3.486 1.524.734.853 1.01 1.853 1.01 2.972-.01 2.157 0 4.313 0 6.469-.01.12 0 .257.018.45zm-28.571 0h8.157c4.734 0 9.478 0 14.212.009.377 0 .46-.12.46-.477-.02-1.606 0-3.212 0-4.817 0-.129-.02-.257-.038-.395H28.61v5.68z" fill="#F7F9FC"/></mask><g mask="url(#a)"><path d="M58.096 0H21v14.02h37.096V0z" fill="url(#paint2_linear)"/></g><path d="M80 24.076c0-3.78-2.064-6.597-5.735-8.643-2.257-1.257-4.817-1.496-7.44-1.44-.404.009-.35.22-.35.44v19.81c0 11.606 0 23.204-.009 34.81v2.065c1.652.055 3.22.065 4.762-.302 5.212-1.23 8.763-5.111 8.763-9.69.018-12.34.009-24.7.009-37.05z" fill="url(#paint3_linear)"/><path d="M44.216 46.785v7.249c0 .761-.385 1.165-1.138 1.165-2.073.01-4.147.01-6.22 0-.689 0-1.074-.431-1.074-1.156v-7.257h-7.166c-.89 0-1.257-.359-1.257-1.249V39.62c0-.899.358-1.257 1.248-1.257h7.166v-7.212c0-.844.376-1.21 1.22-1.21h5.918c.927 0 1.285.348 1.285 1.293.009 2.257 0 4.505 0 6.762v.376h.394c2.276 0 4.551 0 6.827.01.835 0 1.193.367 1.193 1.202v5.945c0 .909-.35 1.257-1.24 1.257-2.266 0-4.532 0-6.789.01-.092-.01-.202-.01-.367-.01z" fill="url(#paint4_linear)"/></g><defs><linearGradient id="paint0_linear" x1="13.26" y1="42.566" x2="66.473" y2="42.566" gradientUnits="userSpaceOnUse"><stop stop-color="#B0F4FF"/><stop offset="1" stop-color="#69DCFC"/></linearGradient><linearGradient id="paint1_linear" x1="0" y1="42.575" x2="13.26" y2="42.575" gradientUnits="userSpaceOnUse"><stop stop-color="#6CBCFC"/><stop offset="1" stop-color="#458DFC"/></linearGradient><linearGradient id="paint2_linear" x1="20.996" y1="7.008" x2="58.094" y2="7.008" gradientUnits="userSpaceOnUse"><stop stop-color="#6CBCFC"/><stop offset="1" stop-color="#458DFC"/></linearGradient><linearGradient id="paint3_linear" x1="66.469" y1="42.569" x2="80.001" y2="42.569" gradientUnits="userSpaceOnUse"><stop stop-color="#6CBCFC"/><stop offset="1" stop-color="#458DFC"/></linearGradient><linearGradient id="paint4_linear" x1="27.367" y1="42.578" x2="52.63" y2="42.578" gradientUnits="userSpaceOnUse"><stop stop-color="#6CBCFC"/><stop offset="1" stop-color="#458DFC"/></linearGradient><clipPath id="clip0"><path fill="#fff" d="M0 0h80v71.155H0z"/></clipPath></defs></svg>
